!!! OTL: Berkowitz116
!!! Chapter: 1
!!! Section: I
!!! Page: 28
!!! Mode: 
!!! Encoder: DJB
**kern
*staff1
*I"Piano
*clefF4
*k[f#c#g#d#a#]
*B:
*met(c|)
*M2/2
4F#\
4D#\
=1
4BB/
4C#/
4D#\
4E\
=2
4D#\
4C#/
4F#\
4D#\
=3
4BB/
4C#/
4D#\
4E\
=4
2C#/
4BB/
4D#\
=5
4F#\
4F#\
4E\
4G#\
=6
2.B\
8A#\L
8G#\J
=7
4F#\
4E\
4D#\
4C#/
=8
2D#\
4BB/
4D#\
=9
!!linebreak:original
4F#\
4F#\
4E\
4G#\
=10
4B\
8A#\L
8G#\J
4F#\
4E\
=11
2D#\
2C#/
=12
2BB/
2r
==
*-
